X: 1064
T: We Wish You A Merry Christmas
B: christmas songs
M:3/4
L:1/4
Q: 1/4=100
K:G
V:1 
D | "G"G G/A/ G/F/ | "C"E E E | "A7"A A/B/ A/G/ | "D"F D D | "B7"B B/c/ B/A/ | "Em"G E E/E/ | "C"E A "D7"F | "G"G2 ||
D | "G"G G G | "D"F2 F | "C"G F E | "D"D2 B | "D"c B A | "G"d D D/D/ | "C"E A "D7"F | "G"G2 |]
W: We wish you a merry Christmas
W: We wish you a merry Christmas
W: We wish you a merry Christmas and a happy new year
W: 
W: Good tidings we bring to you and your kin
W: We wish you a merry Christmas and a happy new year
W: 
W: Oh, bring us some figgy pudding
W: Oh, bring us some figgy pudding
W: Oh, bring us some figgy pudding
W: And bring it right here
W: 
W: Good tidings we bring to you and your kin
W: We wish you a merry Christmas and a happy new year
W: 
W: We won't go until we get some
W: We won't go until we get some
W: We won't go until we get some
W: So bring it right here
W: 
W: Good tidings we bring to you and your kin
W: We wish you a merry Christmas and a happy new year
W: 
W: We all like our figgy pudding
W: We all like our figgy pudding
W: We all like our figgy pudding
W: With all its good cheers
W: 
W: Good tidings we bring to you and your kin
W: We wish you a merry Christmas and a happy new year
W: 
W: We wish you a merry Christmas
W: We wish you a merry Christmas
W: We wish you a merry Christmas and a happy new year
% abcbook-tune_id 627e195d6d48ca69f120eeee


% abcbook-boost 0
% abcbook-tablature 
% abcbook-transpose 
% abcbook-lastupdated 1653910500611
% abcbook-soundfonts 
% abcbook-repeats 1
% Titles One title
% Transcriptions Only 1 transcription
% Mode major
% Key G
% Time_signature 3/4
% Text Has source text
% Has_accompaniment_chords Has chords

